X: 39
% Old value - X: 1
T: Julia Delaney
R:reel
O:Reel
G:reel
M:4/4
L:1/8
Q:150
K:Ddor
|:"Dm"dcAG F2 DF|"C"E2CE "Dm"FDDD|dcAG FDDF|"A"Add^c "Dm"d2de|
"Dm"dcAG F2 DF|"C"E2CE "Dm"FDDD|dcAG "F"FDDF|"A"Add^c "Dm"d2de:|
|"Dm"fede fagf|"C"ecgc acgc|"Dm"fede "C"fagf|"Am"edc=A "Dm"d2de|
"Dm"fede "F"fagf|"C"ecgc "Am"acgc|"Bb"fedf "C"edc=B|"Am"Add^c "Dm"d2 de|
"Dm"fede "F"fagf|"C"ecgc "Am"acgc|"Dm"fede "C"fagf|"Am"edc=A "Dm"d2de|
"F"fede fagf|"C"ecgc "Am"acgc|"Bb"fedf "C"edc=B|"A"Add^c "Dm"d4||

